Bloom-Colors/scalable/status/revolt-status-blink-symbolic.svg

<svg xmlns="http://www.w3.org/2000/svg" width="16" height="16" version="1">
 <path style="fill:#444444" d="M 7.9941406 0 A 8 8 0 0 0 4.8515625 0.64453125 A 3 3 0 0 1 5.9628906 2.5410156 A 1 1 0 0 1 5.9960938 2.8808594 A 3 3 0 0 1 5.9960938 2.8847656 A 3 3 0 0 1 6 3 A 3 3 0 0 1 3 6 A 3 3 0 0 1 2.8886719 5.9941406 A 1 1 0 0 1 2.5214844 5.9570312 A 3 3 0 0 1 0.64648438 4.859375 A 8 8 0 0 0 -0.005859375 8 A 8 8 0 0 0 7.9941406 16 A 8 8 0 0 0 13.625 13.673828 C 13.017692 13.43251 12.443469 13.163045 11.927734 12.830078 A 1 1 0 0 1 11.5 14.0625 A 1 1 0 0 1 10.134766 13.695312 A 1 1 0 0 1 10.5 12.330078 A 1 1 0 0 1 10.976562 12.197266 A 1 1 0 0 1 11.134766 12.207031 C 10.584524 11.684614 10.170796 10.982539 10.050781 10.1875 A 3 3 0 0 1 8 11 A 3 3 0 0 1 5 8 A 3 3 0 0 1 8 5 A 3 3 0 0 1 11 8 A 3 3 0 0 1 10.998047 8.0410156 C 11.128083 8.0111437 11.248719 7.9969715 11.339844 8 C 11.527474 8.00624 11.647935 8.0371023 11.777344 8.0664062 A 1.0001 1.0001 0 0 1 11.806641 8.0722656 L 13.085938 8.4023438 A 1 1 0 0 1 13 8 A 1 1 0 0 1 14 7 A 1 1 0 0 1 15 8 A 1 1 0 0 1 14.605469 8.7949219 L 15.904297 9.1308594 A 8 8 0 0 0 15.994141 8 A 8 8 0 0 0 7.9941406 0 z M 8 1 A 1 1 0 0 1 9 2 A 1 1 0 0 1 8 3 A 1 1 0 0 1 7 2 A 1 1 0 0 1 8 1 z M 10.953125 1.8046875 A 1 1 0 0 1 11.5 1.9375 A 1 1 0 0 1 11.865234 3.3046875 A 1 1 0 0 1 10.5 3.6699219 A 1 1 0 0 1 10.134766 2.3046875 A 1 1 0 0 1 10.953125 1.8046875 z M 13.171875 4 A 1 1 0 0 1 14.0625 4.5 A 1 1 0 0 1 13.695312 5.8652344 A 1 1 0 0 1 12.330078 5.5 A 1 1 0 0 1 12.695312 4.1347656 A 1 1 0 0 1 13.171875 4 z M 2 7 A 1 1 0 0 1 3 8 A 1 1 0 0 1 2 9 A 1 1 0 0 1 1 8 A 1 1 0 0 1 2 7 z M 2.7792969 10 A 1 1 0 0 1 3.6699219 10.5 A 1 1 0 0 1 3.3046875 11.865234 A 1 1 0 0 1 1.9375 11.5 A 1 1 0 0 1 2.3046875 10.134766 A 1 1 0 0 1 2.7792969 10 z M 4.953125 12.197266 A 1 1 0 0 1 5.5 12.330078 A 1 1 0 0 1 5.8652344 13.695312 A 1 1 0 0 1 4.5 14.0625 A 1 1 0 0 1 4.1347656 12.695312 A 1 1 0 0 1 4.953125 12.197266 z M 8 13 A 1 1 0 0 1 9 14 A 1 1 0 0 1 8 15 A 1 1 0 0 1 7 14 A 1 1 0 0 1 8 13 z"/>
 <path style="fill:#5294ef" class="warning" d="M 3,1 A 2,2 0 0 0 1,3 2,2 0 0 0 3,5 2,2 0 0 0 5,3 2,2 0 0 0 3,1 Z"/>
 <path style="fill:#444444" d="m 11.306641,9 c -0.188731,-0.00627 -0.213824,0.097137 -0.269532,0.3710938 -0.280349,1.8036212 1.354249,2.8043272 3.501953,3.5839842 0.256195,0.09097 0.278088,0.04569 0.433594,-0.148437 0.284128,-0.367873 0.452788,-0.75585 0.591797,-1.16211 0.124322,-0.363338 0.224823,-0.740993 0.363281,-1.128906 0.139074,-0.328745 0.08912,-0.321914 -0.259765,-0.412109 L 11.556641,9.0410156 C 11.449895,9.0168436 11.369552,9.0020911 11.306641,9 Z"/>
</svg>

<svg width="16" height="16" version="1" xmlns="http://www.w3.org/2000/svg">
<path d="m7.9941 0a8 8 0 0 0-3.1426 0.64453 3 3 0 0 1 1.1113 1.8965 1 1 0 0 1 0.033203 0.33984 3 3 0 0 1 0 0.0039062 3 3 0 0 1 0.0039062 0.11523 3 3 0 0 1-3 3 3 3 0 0 1-0.11133-0.0058594 1 1 0 0 1-0.36719-0.037109 3 3 0 0 1-1.875-1.0977 8 8 0 0 0-0.65234 3.1406 8 8 0 0 0 8 8 8 8 0 0 0 5.6309-2.3262c-0.60731-0.24132-1.1815-0.51078-1.6973-0.84375a1 1 0 0 1-0.42773 1.2324 1 1 0 0 1-1.3652-0.36719 1 1 0 0 1 0.36523-1.3652 1 1 0 0 1 0.47656-0.13281 1 1 0 0 1 0.1582 0.009765c-0.55024-0.52242-0.96397-1.2245-1.084-2.0195a3 3 0 0 1-2.0508 0.8125 3 3 0 0 1-3-3 3 3 0 0 1 3-3 3 3 0 0 1 3 3 3 3 0 0 1-0.001953 0.041016c0.13004-0.029872 0.25067-0.044044 0.3418-0.041016 0.18763 0.00624 0.30809 0.037102 0.4375 0.066406a1.0001 1.0001 0 0 1 0.029297 0.0058594l1.2793 0.33008a1 1 0 0 1-0.085938-0.40234 1 1 0 0 1 1-1 1 1 0 0 1 1 1 1 1 0 0 1-0.39453 0.79492l1.2988 0.33594a8 8 0 0 0 0.089844-1.1309 8 8 0 0 0-8-8zm0.0058594 1a1 1 0 0 1 1 1 1 1 0 0 1-1 1 1 1 0 0 1-1-1 1 1 0 0 1 1-1zm2.9531 0.80469a1 1 0 0 1 0.54688 0.13281 1 1 0 0 1 0.36523 1.3672 1 1 0 0 1-1.3652 0.36523 1 1 0 0 1-0.36523-1.3652 1 1 0 0 1 0.81836-0.5zm2.2188 2.1953a1 1 0 0 1 0.89062 0.5 1 1 0 0 1-0.36719 1.3652 1 1 0 0 1-1.3652-0.36523 1 1 0 0 1 0.36523-1.3652 1 1 0 0 1 0.47656-0.13477zm-11.172 3a1 1 0 0 1 1 1 1 1 0 0 1-1 1 1 1 0 0 1-1-1 1 1 0 0 1 1-1zm0.7793 3a1 1 0 0 1 0.89062 0.5 1 1 0 0 1-0.36523 1.3652 1 1 0 0 1-1.3672-0.36523 1 1 0 0 1 0.36719-1.3652 1 1 0 0 1 0.47461-0.13477zm2.1738 2.1973a1 1 0 0 1 0.54688 0.13281 1 1 0 0 1 0.36523 1.3652 1 1 0 0 1-1.3652 0.36719 1 1 0 0 1-0.36523-1.3672 1 1 0 0 1 0.81836-0.49805zm3.0469 0.80273a1 1 0 0 1 1 1 1 1 0 0 1-1 1 1 1 0 0 1-1-1 1 1 0 0 1 1-1z" fill="#666"/>
<path class="warning" d="m3 1a2 2 0 0 0-2 2 2 2 0 0 0 2 2 2 2 0 0 0 2-2 2 2 0 0 0-2-2z" fill="#f44336"/>
<path d="m11.307 9c-0.18873-0.00627-0.21382 0.097137-0.26953 0.37109-0.28035 1.8036 1.3542 2.8043 3.502 3.584 0.2562 0.09097 0.27809 0.04569 0.43359-0.14844 0.28413-0.36787 0.45279-0.75585 0.5918-1.1621 0.12432-0.36334 0.22482-0.74099 0.36328-1.1289 0.13907-0.32874 0.08912-0.32191-0.25976-0.41211l-4.1113-1.0625c-0.10675-0.024172-0.18709-0.038924-0.25-0.041016z" fill="#666"/>
</svg>
